src/images/review/quote.svg

<svg fill="none" height="47" viewBox="0 0 48 47" width="48" xmlns="http://www.w3.org/2000/svg"><path d="m44.7083 31.5271c0 1.1047-.251 2.084-.7532 2.9377-.452.8034-1.0546 1.4814-1.8078 2.0338-.7533.5524-1.5819.9792-2.4858 1.2805-.8537.2511-1.6571.3766-2.4104.3766-1.155 0-2.3351-.2511-3.5403-.7532-1.155-.5524-2.2096-1.3308-3.1637-2.3351-.9541-1.0044-1.7325-2.2096-2.3351-3.6157-.6026-1.406-.9039-2.9628-.9039-4.6701 0-2.9629.5524-5.4988 1.6572-7.6079 1.155-2.1092 2.5108-3.8668 4.0676-5.2728 1.6069-1.4563 3.239-2.5862 4.8961-3.3897 1.7074-.85369 3.1135-1.45629 4.2183-1.80781v2.41041c-1.0044.6026-2.084 1.2554-3.239 1.9585-1.1048.703-2.1343 1.5316-3.0884 2.4857-.9039.9541-1.6572 2.0338-2.2598 3.239s-.9039 2.5611-.9039 4.0676c0 .7533.0754 1.3559.226 1.8078.1507.452.3264.8035.5273 1.0546.2511.2511.4771.4268.6779.5273.2511.1004.452.1506.6026.1506.5524 0 1.2303-.1506 2.0338-.4519.8035-.3516 1.5567-.5273 2.2598-.5273.6528 0 1.3056.1506 1.9585.4519.703.2511 1.3307.6529 1.8831 1.2053.5524.5021 1.0043 1.1298 1.3559 1.8831.3515.7533.5272 1.6069.5272 2.5611zm-23.4922-.1507c0 1.1048-.251 2.084-.7532 2.9377-.452.8537-1.0546 1.5567-1.8078 2.1091-.7533.5022-1.5819.9039-2.4858 1.2052-.8537.2511-1.6823.3767-2.4857.3767-1.155 0-2.31-.2511-3.465-.7533-1.155-.5524-2.20956-1.3056-3.16369-2.2598-.95412-1.0043-1.73249-2.2095-2.33509-3.6156-.55239-1.4061-.82858-2.9628-.82858-4.6702 0-2.9628.55238-5.4988 1.65716-7.6079 1.15499-2.1593 2.51086-3.942 4.06759-5.3481 1.60691-1.4563 3.23901-2.5862 4.89621-3.3896 1.6571-.85374 3.0381-1.45635 4.1429-1.80787v2.48577c-1.0044.6026-2.084 1.2554-3.239 1.9584-1.1048.7031-2.1343 1.5317-3.0884 2.4858-.9039.9541-1.6823 2.0338-2.33508 3.239-.60261 1.155-.90391 2.5109-.90391 4.0676 0 1.4061.27619 2.3351.82858 2.787.60261.452 1.05451.678 1.35591.678.5021 0 1.1549-.1507 1.9584-.452s1.5568-.4519 2.2598-.4519c.6528 0 1.3056.1506 1.9585.4519.703.2511 1.3307.6528 1.8831 1.2052.5524.5022 1.0043 1.1299 1.3559 1.8832.3515.703.5272 1.5316.5272 2.4857z" fill="#ffd874"/></svg>

<svg width="48" height="47" viewBox="0 0 48 47" fill="none" xmlns="http://www.w3.org/2000/svg">
<g id="Quote Icon">
<path id="&#226;&#128;&#156;" d="M44.7083 31.5271C44.7083 32.6318 44.4573 33.6111 43.9551 34.4648C43.5031 35.2682 42.9005 35.9462 42.1473 36.4986C41.394 37.051 40.5654 37.4778 39.6615 37.7791C38.8078 38.0302 38.0044 38.1557 37.2511 38.1557C36.0961 38.1557 34.916 37.9046 33.7108 37.4025C32.5558 36.8501 31.5012 36.0717 30.5471 35.0674C29.593 34.063 28.8146 32.8578 28.212 31.4517C27.6094 30.0457 27.3081 28.4889 27.3081 26.7816C27.3081 23.8187 27.8605 21.2828 28.9653 19.1737C30.1203 17.0645 31.4761 15.3069 33.0329 13.9009C34.6398 12.4446 36.2719 11.3147 37.929 10.5112C39.6364 9.65751 41.0425 9.05491 42.1473 8.70339V11.1138C41.1429 11.7164 40.0633 12.3692 38.9083 13.0723C37.8035 13.7753 36.774 14.6039 35.8199 15.558C34.916 16.5121 34.1627 17.5918 33.5601 18.797C32.9575 20.0022 32.6562 21.3581 32.6562 22.8646C32.6562 23.6179 32.7316 24.2205 32.8822 24.6724C33.0329 25.1244 33.2086 25.4759 33.4095 25.727C33.6606 25.9781 33.8866 26.1538 34.0874 26.2543C34.3385 26.3547 34.5394 26.4049 34.69 26.4049C35.2424 26.4049 35.9203 26.2543 36.7238 25.953C37.5273 25.6014 38.2805 25.4257 38.9836 25.4257C39.6364 25.4257 40.2892 25.5763 40.9421 25.8776C41.6451 26.1287 42.2728 26.5305 42.8252 27.0829C43.3776 27.585 43.8295 28.2127 44.1811 28.966C44.5326 29.7193 44.7083 30.5729 44.7083 31.5271ZM21.2161 31.3764C21.2161 32.4812 20.9651 33.4604 20.4629 34.3141C20.0109 35.1678 19.4083 35.8708 18.6551 36.4232C17.9018 36.9254 17.0732 37.3271 16.1693 37.6284C15.3156 37.8795 14.487 38.0051 13.6836 38.0051C12.5286 38.0051 11.3736 37.754 10.2186 37.2518C9.0636 36.6994 8.00904 35.9462 7.05491 34.992C6.10079 33.9877 5.32242 32.7825 4.71982 31.3764C4.16743 29.9703 3.89124 28.4136 3.89124 26.7062C3.89124 23.7434 4.44362 21.2074 5.5484 19.0983C6.70339 16.939 8.05926 15.1563 9.61599 13.7502C11.2229 12.2939 12.855 11.164 14.5122 10.3606C16.1693 9.50686 17.5503 8.90425 18.6551 8.55273V11.0385C17.6507 11.6411 16.5711 12.2939 15.4161 12.9969C14.3113 13.7 13.2818 14.5286 12.3277 15.4827C11.4238 16.4368 10.6454 17.5165 9.99262 18.7217C9.39001 19.8767 9.08871 21.2326 9.08871 22.7893C9.08871 24.1954 9.3649 25.1244 9.91729 25.5763C10.5199 26.0283 10.9718 26.2543 11.2732 26.2543C11.7753 26.2543 12.4281 26.1036 13.2316 25.8023C14.0351 25.501 14.7884 25.3504 15.4914 25.3504C16.1442 25.3504 16.797 25.501 17.4499 25.8023C18.1529 26.0534 18.7806 26.4551 19.333 27.0075C19.8854 27.5097 20.3373 28.1374 20.6889 28.8907C21.0404 29.5937 21.2161 30.4223 21.2161 31.3764Z" fill="#FFD874"/>
</g>
</svg>
